X: 967
T: Harap Oldu
C: Ârif Sâmi Toker
O: Turkey
F: http://compmusic.upf.edu/node/140
N: hicazkar--sarki--duyek--harap_oldu--arif_sami_toker
N: makam= hicazkar
N: form= sarki
N: usul= duyek = 8/4
M: 8/4
L: 1/16
K: C _1/4B _7/8e _7/8A ^f
Q: 1/4=108
%%MIDI tuningsystem comma53
f2 g2 e2 g2 f2 g2 ed c2  | f2 g2 e2 g2 f2 g2 ed c2  | \
w:   |   | 
z2 c'2 _b2 =a2 g3f e2 f2  | 
w:   | 
g6 f2 _1/4e2 g2 =f4  | _1/4e4 =f4 e2 g2 gf e^d  | \
w:   |   | 
_1/4e2 e2 =f4 e2 g2 gf e^d  | 
w:   | 
_1/4e2 z2 _b2 =a2 g2 g2 =f2 e2  | \
w:   | 
^d2 _1/4e8 e8 G2 c2 B2 c2 =d4 _7/8ed  | \
w:   | 
c2 G2 c2 B2 c2 d4 ed  | 
w:   | 
c2 G2 c2 B2 c2 d4 ed  | c2 B2 A2 A2 G2 G2 dc Bc  | \
w:   |   | 
d2 G2 c2 B2 c2 d4 ed  | 
w:   | 
c2 G2 c2 B2 c2 d4 ed  | c2 G2 c2 B2 c2 d4 ed  | \
w:   |   | 
c2 B2 A2 A2 G2 G8 f8 f2 g2 ed  | 
w:   | 
c2 g8 g8 z2 _b2 =a2 g2 g2 =f2 _1/4e2  | \
w:   | 
^d2 _1/4e16 z2 a2 g2 f2 _7/8e2 =d2 cB  | \
w:   | 
c2 d12 z4 z2 e2 d2 c2 B2 G2 A2  | 
w:   | 
B2 BA G6 G4 z4 f2 g4 _b2 =a2 g2 f2  | \
w:   | 
e2 d2 e4 d2 c3B c4 f2 g4 _b2 =a2 g2 f2  | 
w:   | 
=a2 g6 fe dc BA G4 f2 g4 _b2 a2 g2 f2  | \
w:   | 
e2 d2 e4 d2 c3B c4 f2 g4 _b2 =a2 g2 f2  | 
w:   | 
=a2 g6 =f2 _1/4e2 g2 f4 e2 f4 z2 f4 f2  | \
w:   | 
_1/4e^d e2 g6 _b=a g=f ed  | 
w:   | 
_1/4e2 f2 g6 g3=f e2  | g2 =f6 g2 gf _1/4e^d e4 e2 f6 f4 f2  | \
w:   |   | 
_1/4e2 e2 g4 f2 e3d c4 B2 c2 B2 A2 G3F E2  | 
w:   | 
F2 G6 =f2 _1/4e2 g2 f4 ^f2 g2 _7/8e2 g2 f2 g2 ed  | \
w:   | 
c2 f2 g2 e2 g2 f2 g2 ed  | 
w:   | 
c2 z2 c'2 _b2 =a2 g3f e2  | f2 g6 f2 _1/4e2 g2 =f4 e4 f4 e2 g2 gf  | \
w:   |   | 
_1/4e^d e2 e2 =f4 e2 g2 gf  | 
w:   | 
_1/4e^d e2 z2 _b2 =a2 g2 g2 =f2  | \
w:   | 
_1/4e2 ^d2 e8 e8 G2 c2 B2 c2 =d4  | \
w:   | 
ed c2 G2 c2 B2 c2 d4  | 
w:   | 
ed c2 G2 c2 B2 c2 d4  | ed c2 B2 A2 A2 G2 G8 f8 f2 g2  | \
w:   |   | 
ed c2 g8 g8 z2 _b2 =a2 g2 g2 =f2  | 
w:   | 
_1/4e2 ^d2 e16 z2 a2 g2 f2 _7/8e2 =d2  | \
w:   | 
cB c2 d12  | z4 z2 e2 d2 c2 B2 G2  | \
w:   |   | 
A2 B2 BA G6 G4  | 
w:   | 
z4 f2 g4 _b2 =a2 g2  | f2 e2 d2 e4 d2 c3B  | \
w:   |   | 
c4 f2 g4 _b2 =a2 g2  | f2 =a2 g6 fe dc BA  | 
w:   |   | 
G4 g6 =f2 _1/4e2 g2  | =f4 _1/4e2 f4 z2 f4  | \
w:   |   | 
=f2 _1/4e^d e2 g6 _b=a gf  | _1/4e^d e2 f2 g6 g3=f  | 
w:   |   | 
_1/4e2 g2 =f6 g2 gf e^d  | _1/4e4 e2 =f6 f4  | \
w:   |   | 
=f2 _1/4e2 e2 g4 ^f2 e3d  | c4 B2 c2 B2 A2 G3F  | 
w:   |   | 
E2 F2 G6 =f2 _1/4e2 g2  | =f4 G12  | \
w:   |   | 
z4 f2 g2 e2 g2 f2 g2  | ed c2 f2 g2 e2 g2 f2 g2  | 
w:   |   | 
ed c2 z2 c'2 _b2 =a2 g3f  | e2 f2 g6 f2 _1/4e2 g2  | \
w:   |   | 
=f4 _1/4e4 f4 e2 g2  | g=f _1/4e^d e2 e2 f4 e2 g2  | 
w:   |   | 
g=f _1/4e^d e2 z2 _b2 =a2 g2 g2  | \
w:   | 
=f2 _1/4e2 ^d2 e8 e8 G2 c2 B2 c2 =d4 _7/8ed c2 G2 c2 B2 c2 d4 ed c2 G2 c2 B2 c2 d4 ed c2 B2 A2 A2 G2 G2  | 
w:   | 
dc Bc d2 G2 c2 B2 c2 d4 ed c2 G2 c2 B2 c2 d4 ed c2 G2 c2 B2 c2 d4 ed c2 B2 A2 A2 G2 G8 f8 f2  | 
w:   | 
g2 ed c2 g8 g8 z2 _b2 =a2 g2 g2  | \
w:   | 
=f2 _1/4e2 ^d2 e16 z2 a2 g2 ^f2 _7/8e2  | \
w:   | 
d2 cB c2 d12 z4 z2 e2 d2 c2 B2  | 
w:   | 
G2 A2 B2 BA G6 G4 z4 f2 g4 _b2 =a2  | \
w:   | 
g2 f2 e2 d2 e4 d2 c3B c4 f2 g4 _b2 =a2  | 
w:   | 
g2 f2 =a2 g6 fe dc  | BA G4 f2 g4 _b2 =a2  | \
w:   |   | 
g2 f2 e2 d2 e4 d2 c3B c4 f2 g4 _b2 =a2  | 
w:   | 
g2 f2 =a2 g6 =f2 _1/4e2  | g2 =f4 _1/4e2 f4 z2 f4 f2 e^d e2 g6 _b=a  | \
w:   |   | 
g=f _1/4e^d e2 ^f2 g6 g3=f e2 g2 f6 g2 gf  | 
w:   | 
_1/4e^d e4 e2 =f6 f4 f2 e2 e2 g4 ^f2 e3=d c4 B2 c2 B2 A2 G3F E2 F2 G6 =f2 e2  | 
w:   | 
g2 =f4 ^f2 g2 e2 g2 f2  | g2 ed c2 f2 g2 e2 g2 f2  | \
w:   |   | 
g2 ed c2 z2 c'2 _b2 =a2 g3f e2 f2 g6 f2 _1/4e2  | 
w:   | 
g2 =f4 _1/4e4 f4 e2  | g2 g=f _1/4e^d e2 e2 f4 e2  | \
w:   |   | 
g2 g=f _1/4e^d e2 z2 _b2 =a2 g2  | 
w:   | 
g2 =f2 _1/4e2 ^d2 e8  | _1/4e8 G2 c2 B2 c2  | \
w:   |   | 
d4 ed c2 G2 c2 B2 c2  | d4 ed c2 G2 c2 B2 c2  | 
w:   |   | 
d4 ed c2 B2 A2 A2 G2  | G8 f8  | f2 g2 ed c2 g8  | \
w:   |   |   | 
g8 z2 _b2 =a2 g2  | 
w:   | 
g2 =f2 _1/4e2 ^d2 e16 z2 a2 g2 ^f2  | \
w:   | 
e2 d2 cB c2 d12 z4 z2 e2 d2 c2  | \
w:   | 
B2 G2 A2 B2 BA G6  | 
w:   | 
G4 z4 f2 g4 _b2  | =a2 g2 f2 e2 d2 e4 d2  | \
w:   |   | 
c3B c4 f2 g4 _b2  | =a2 g2 f2 a2 g6 fe  | 
w:   |   | 
dc BA G4 g6 =f2  | _1/4e2 g2 =f4 e2 f4 z2  | \
w:   |   | 
=f4 f2 _1/4e^d e2 g6  | _b=a g=f _1/4e^d e2 ^f2 g6  | 
w:   |   | 
g3=f _1/4e2 g2 f6 g2  | g=f _1/4e^d e4 e2 f6  | \
w:   |   | 
=f4 f2 _1/4e2 e2 g4 ^f2  | _1/4e3d c4 B2 c2 B2 A2  | 
w:   |   | 
G3F E2 F2 G6 =f2  | _1/4e2 g2 =f4 G12 z4 |
w:   |   | 


